icons/1_Primary/Zenkit.svg

<svg xmlns="http://www.w3.org/2000/svg" viewBox="0 0 1024 1024">
   <circle cx="512" cy="512" r="512" style="fill:#a462d9"/>
   <path d="M621.57 508.38 519.51 234l207.67 274.38Zm-211.51 0h203.87L512 234.35l-101.94 274Zm203.86 7.16H410.06L512 789.64l101.92-274.1Zm-211.51-7.16L504.49 234 296.82 508.38Zm0 7.16H296.83L504.51 790 402.42 515.54Zm219.15 0L519.53 790l207.65-274.46Z" style="fill:#fff"/>
</svg>

<svg width="1024" height="1024" viewBox="0 0 1024 1024" fill="none" xmlns="http://www.w3.org/2000/svg">
<g clip-path="url(#clip0_2_4030)">
<path d="M512 1024C794.77 1024 1024 794.77 1024 512C1024 229.23 794.77 0 512 0C229.23 0 0 229.23 0 512C0 794.77 229.23 1024 512 1024Z" fill="#BD9AFF"/>
<path d="M621.57 508.38L519.51 234L727.18 508.38H621.57ZM410.06 508.38H613.93L512 234.35L410.06 508.35V508.38ZM613.92 515.54H410.06L512 789.64L613.92 515.54ZM402.41 508.38L504.49 234L296.82 508.38H402.41ZM402.41 515.54H296.83L504.51 790L402.42 515.54H402.41ZM621.56 515.54L519.53 790L727.18 515.54H621.56Z" fill="white"/>
</g>
<defs>
<clipPath id="clip0_2_4030">
<rect width="1024" height="1024" fill="white"/>
</clipPath>
</defs>
</svg>
